X:38
T: Panhandle Country
C: Bill Monroe
S: MandoZine TablEdit Archives
S: PanhandleCountry-C-Monroe.tef
Z: TablEdited by Mike Stangeland for MandoZine
L: 1/8
Q: 500
M: 4/4
K: C
|: "C"CC CC EG AB | cB cB AG EE | "F"FF FF FF AA | Ac cc Ac cc |
 "G"dA cA BA AA | GD FD ED B,B, | "C"CC CC EG AB | B2 [ecE][e2c2E2][ecE] [e2c2E2] :|
|: "C"[EC][E2C2][EC] [EC][EC] [E2C2] | "C7"[E2_B,2] [E_B,][E2_B,2][E_B,] [E2_B,2] |
 "F"[F2A,2] [F2A,2] [F2A,2] [F2A,2] | [F2A,2] [FA,][F2A,2][FA,] [F2A,2] |
 "G"G,B, B,D DB Bg | gd dd BG DB, | "C"CC CC EG AB | c2 [ecE][e2c2E2][ecE] [e2c2E2] :|
